src/cmd/lc_insertrows.svg

<svg viewBox="0 0 24 24" xmlns="http://www.w3.org/2000/svg"><path d="m4 10v4 1 5h1 8 1v-1-4-1-4h-1v4h-2v-4h-1v4h-2v-4h-1v4h-2v-4zm12 0v4h1v-4zm3 0v4h1v-4zm-14 5h2v4h-2zm3 0h2v4h-2zm3 0h2v4h-2zm6 0v2h-2v1h2v2h1v-2h2v-1h-2v-2z" fill="#232629"/><path d="m4 4v1 4 1h1 3 4 4 3 1v-1-2.28125-1.4375-.28125-1h-1-1.71875-1.28125-4-2.71875-1.28125-3zm1 1h3 .28125l-3.28125 3.28125zm4.71875 0h2.28125.28125l-.28125.28125-3.71875 3.71875h-.28125-2.28125zm4 0h2.28125.28125l-.28125.28125-3.71875 3.71875h-.28125-2.28125l2.28125-2.28125zm4 0h1.28125v1.28125l-2.71875 2.71875h-.28125-2.28125l2.28125-2.28125zm1.28125 2.71875v1.28125h-1.28125z" fill="#762572"/></svg>

<?xml version="1.0" encoding="UTF-8" standalone="no"?>
<svg
   xmlns:dc="http://purl.org/dc/elements/1.1/"
   xmlns:cc="http://creativecommons.org/ns#"
   xmlns:rdf="http://www.w3.org/1999/02/22-rdf-syntax-ns#"
   xmlns:svg="http://www.w3.org/2000/svg"
   xmlns="http://www.w3.org/2000/svg"
   xmlns:sodipodi="http://sodipodi.sourceforge.net/DTD/sodipodi-0.dtd"
   xmlns:inkscape="http://www.inkscape.org/namespaces/inkscape"
   viewBox="0 0 24 24"
   version="1.1"
   id="svg6"
   sodipodi:docname="lc_insertrows.svg"
   inkscape:version="0.92.4 (5da689c313, 2019-01-14)">
  <metadata
     id="metadata12">
    <rdf:RDF>
      <cc:Work
         rdf:about="">
        <dc:format>image/svg+xml</dc:format>
        <dc:type
           rdf:resource="http://purl.org/dc/dcmitype/StillImage" />
      </cc:Work>
    </rdf:RDF>
  </metadata>
  <defs
     id="defs10" />
  <sodipodi:namedview
     pagecolor="#ffffff"
     bordercolor="#666666"
     borderopacity="1"
     objecttolerance="10"
     gridtolerance="10"
     guidetolerance="10"
     inkscape:pageopacity="0"
     inkscape:pageshadow="2"
     inkscape:window-width="1920"
     inkscape:window-height="1011"
     id="namedview8"
     showgrid="true"
     inkscape:zoom="27.812867"
     inkscape:cx="11.254768"
     inkscape:cy="14.553754"
     inkscape:window-x="1920"
     inkscape:window-y="32"
     inkscape:window-maximized="1"
     inkscape:current-layer="svg6">
    <inkscape:grid
       type="xygrid"
       id="grid822" />
  </sodipodi:namedview>
  <path
     d="m 4,10 v 4 1 3 c 0,2 1,2 3,2 h 6 1 v -1 -4 -1 -4 h -1 v 4 h -2 v -4 h -1 v 4 H 8 V 10 H 7 v 4 H 5 v -4 z m 12,0 v 4 h 1 v -4 z m 3,0 v 4 h 1 V 10 Z M 5,15 h 2 v 4 C 6,19 5,19 5,18 Z m 3,0 h 2 v 4 H 8 Z m 3,0 h 2 v 4 h -2 z m 6,0 v 2 h -2 v 1 h 2 v 2 h 1 v -2 h 2 v -1 h -2 v -2 z"
     id="path2"
     inkscape:connector-curvature="0"
     style="fill:#232629"
     sodipodi:nodetypes="cccccccccccccccccccccccccccccccccccccccccccccccccccccccccccccc" />
  <path
     d="m 4,6 v 3 1 h 1 3 4 4 3 1 V 9 6.71875 6 C 20,4 19,4 17,4 H 16 12 9.28125 8 7 C 5,4 4,4 4,6 Z M 5,6 C 5,5 6,5 7,5 H 8 8.28125 L 5,8.28125 Z M 9.71875,5 H 12 12.28125 L 12,5.28125 8.28125,9 H 8 5.71875 Z m 4,0 H 16 16.28125 L 16,5.28125 12.28125,9 H 12 9.71875 L 12,6.71875 Z m 4,0 C 18,5 19,5 19,6 V 6.28125 L 16.28125,9 H 16 13.71875 L 16,6.71875 Z M 19,7.71875 V 9 h -1.28125 z"
     id="path4"
     inkscape:connector-curvature="0"
     style="fill:#762572"
     sodipodi:nodetypes="cccccccccccccccccccccccccccccccccccccccccccccccccccccc" />
</svg>
